X: 10082
M: C|
L: 1/8
K: Gm
(d>c) |\
(B>A)G>^F (G>A)B>c | d2G2 G2(a>g) | (f>e)d>c (B>c)d>B | (3cdc (3BAG F2(d>c) |
(B>A)G^F (G>A)B>c | dg^fa g2(g>d) | (e>d)c=B (c>e)d>c | (c>B) G2G2 || (ga) |
bgdB | gdBG | DGBd gdbg | afcA fcAF | CFAc dcBA |


